Numix/16/status/indicator-keyboard-It-2.svg

<?xml version="1.0" encoding="UTF-8" standalone="no"?>
<svg
   xmlns:dc="http://purl.org/dc/elements/1.1/"
   xmlns:cc="http://creativecommons.org/ns#"
   xmlns:rdf="http://www.w3.org/1999/02/22-rdf-syntax-ns#"
   xmlns:svg="http://www.w3.org/2000/svg"
   xmlns="http://www.w3.org/2000/svg"
   xmlns:sodipodi="http://sodipodi.sourceforge.net/DTD/sodipodi-0.dtd"
   xmlns:inkscape="http://www.inkscape.org/namespaces/inkscape"
   viewBox="0 0 16 16"
   id="svg2"
   version="1.1"
   inkscape:version="0.91 r13725"
   sodipodi:docname="indicator-keyboard-It-2.svg">
  <metadata
     id="metadata14">
    <rdf:RDF>
      <cc:Work
         rdf:about="">
        <dc:format>image/svg+xml</dc:format>
        <dc:type
           rdf:resource="http://purl.org/dc/dcmitype/StillImage" />
      </cc:Work>
    </rdf:RDF>
  </metadata>
  <defs
     id="defs12" />
  <sodipodi:namedview
     pagecolor="#ffffff"
     bordercolor="#666666"
     borderopacity="1"
     objecttolerance="10"
     gridtolerance="10"
     guidetolerance="10"
     inkscape:pageopacity="0"
     inkscape:pageshadow="2"
     inkscape:window-width="640"
     inkscape:window-height="480"
     id="namedview10"
     showgrid="false"
     inkscape:zoom="14.75"
     inkscape:cx="8"
     inkscape:cy="8"
     inkscape:window-x="75"
     inkscape:window-y="34"
     inkscape:window-maximized="0"
     inkscape:current-layer="svg2" />
  <path
     style="fill:#ececec;fill-opacity:1"
     d="M 1.5996094 0 C 0.71320937 2.9605947e-16 0 0.71320937 0 1.5996094 L 0 14.400391 C 2.9605947e-16 15.286791 0.71320937 16 1.5996094 16 L 14.400391 16 C 15.286791 16 16 15.286791 16 14.400391 L 16 1.5996094 C 16 0.71320937 15.286791 0 14.400391 0 L 1.5996094 0 z M 4.1445312 4.859375 L 4.7558594 4.859375 L 4.7558594 11.095703 L 4.1445312 11.095703 L 4.1445312 4.859375 z M 6.890625 4.9667969 L 6.890625 6.4433594 L 8.7441406 6.4433594 L 8.7441406 6.9375 L 6.890625 6.9375 L 6.890625 9.4121094 C 6.890625 9.6761094 6.911125 9.8925467 6.953125 10.060547 C 7.001125 10.222547 7.0663906 10.349453 7.1503906 10.439453 C 7.2343906 10.529453 7.3370312 10.589141 7.4570312 10.619141 C 7.5770313 10.649141 7.7095156 10.664062 7.8535156 10.664062 C 8.0995156 10.664062 8.2972656 10.636031 8.4472656 10.582031 C 8.5972656 10.522031 8.7148281 10.469875 8.7988281 10.421875 L 8.9414062 10.90625 C 8.8574062 10.96025 8.7119531 11.023703 8.5019531 11.095703 C 8.2919531 11.161703 8.0624062 11.195313 7.8164062 11.195312 C 7.5284063 11.195312 7.2858906 11.159891 7.0878906 11.087891 C 6.8958906 11.009891 6.7391406 10.894141 6.6191406 10.744141 C 6.5051406 10.588141 6.4249531 10.397922 6.3769531 10.169922 C 6.3289531 9.9419217 6.3046875 9.671375 6.3046875 9.359375 L 6.3046875 5.0742188 L 6.890625 4.9667969 z M 10.527344 8.7539062 C 10.921244 8.7539062 11.217116 8.851875 11.416016 9.046875 C 11.614916 9.237975 11.714844 9.5044563 11.714844 9.8476562 C 11.714844 9.9997563 11.687412 10.14475 11.632812 10.28125 C 11.578212 10.41385 11.503756 10.543169 11.410156 10.667969 C 11.320456 10.792769 11.218562 10.912297 11.101562 11.029297 C 10.984562 11.146297 10.865041 11.263859 10.744141 11.380859 C 10.642741 11.478359 10.542812 11.578288 10.445312 11.679688 C 10.351712 11.777188 10.2655 11.877116 10.1875 11.978516 C 10.1134 12.076016 10.054612 12.172031 10.007812 12.269531 C 9.9649125 12.363131 9.9433594 12.457181 9.9433594 12.550781 L 9.9433594 12.5625 L 11.855469 12.5625 L 11.855469 12.896484 L 9.5214844 12.896484 C 9.5214844 12.888684 9.519525 12.874969 9.515625 12.855469 L 9.515625 12.755859 C 9.515625 12.572559 9.5489344 12.402094 9.6152344 12.246094 C 9.6815344 12.086194 9.7657875 11.937275 9.8671875 11.796875 C 9.9724875 11.656475 10.086137 11.525197 10.210938 11.404297 C 10.339638 11.283397 10.463078 11.165834 10.580078 11.052734 C 10.677578 10.959134 10.769669 10.869003 10.855469 10.783203 C 10.945169 10.693503 11.023544 10.603366 11.089844 10.509766 C 11.156144 10.416166 11.207094 10.316238 11.246094 10.210938 C 11.285094 10.105638 11.304688 9.9900344 11.304688 9.8652344 C 11.304688 9.5922344 11.232184 9.39825 11.083984 9.28125 C 10.939684 9.16035 10.755503 9.0996094 10.533203 9.0996094 C 10.408403 9.0996094 10.296719 9.1152844 10.199219 9.1464844 C 10.101719 9.1776844 10.017459 9.2149125 9.9433594 9.2578125 C 9.8731594 9.2968125 9.8124188 9.3379594 9.7617188 9.3808594 C 9.7110188 9.4237594 9.6737906 9.4570688 9.6503906 9.4804688 L 9.4511719 9.2167969 C 9.4745719 9.1894969 9.5157187 9.1503094 9.5742188 9.0996094 C 9.6366187 9.0450094 9.7130344 8.9921062 9.8027344 8.9414062 C 9.8963344 8.8907063 10.002147 8.8476 10.123047 8.8125 C 10.243947 8.7735 10.379144 8.7539063 10.527344 8.7539062 z "
     id="path4" />
</svg>

<svg xmlns="http://www.w3.org/2000/svg" viewBox="0 0 16 16">
 <path d="m 1.6 0 c -0.886 0 -1.6 0.713 -1.6 1.6 l 0 12.801 c 0 0.886 0.713 1.6 1.6 1.6 l 12.801 0 c 0.886 0 1.6 -0.713 1.6 -1.6 l 0 -12.801 c 0 -0.886 -0.713 -1.6 -1.6 -1.6 l -12.801 0 z m 2.545 4.859 l 0.611 0 l 0 6.236 l -0.611 0 l 0 -6.236 z m 2.746 0.107 l 0 1.477 l 1.854 0 l 0 0.494 l -1.854 0 l 0 2.475 c 0 0.264 0.021 0.48 0.063 0.648 c 0.048 0.162 0.113 0.289 0.197 0.379 c 0.084 0.09 0.187 0.15 0.307 0.18 c 0.12 0.03 0.252 0.045 0.396 0.045 c 0.246 0 0.444 -0.028 0.594 -0.082 c 0.15 -0.06 0.268 -0.112 0.352 -0.16 l 0.143 0.484 c -0.084 0.054 -0.229 0.117 -0.439 0.189 c -0.21 0.066 -0.44 0.1 -0.686 0.1 c -0.288 0 -0.531 -0.035 -0.729 -0.107 c -0.192 -0.078 -0.349 -0.194 -0.469 -0.344 c -0.114 -0.156 -0.194 -0.346 -0.242 -0.574 c -0.048 -0.228 -0.072 -0.499 -0.072 -0.811 l 0 -4.285 l 0.586 -0.107 z m 3.637 3.787 c 0.394 0 0.69 0.098 0.889 0.293 c 0.199 0.191 0.299 0.458 0.299 0.801 c 0 0.152 -0.027 0.297 -0.082 0.434 c -0.055 0.133 -0.129 0.262 -0.223 0.387 c -0.09 0.125 -0.192 0.244 -0.309 0.361 c -0.117 0.117 -0.237 0.235 -0.357 0.352 c -0.101 0.098 -0.201 0.197 -0.299 0.299 c -0.094 0.098 -0.18 0.197 -0.258 0.299 c -0.074 0.097 -0.133 0.194 -0.18 0.291 c -0.043 0.094 -0.064 0.188 -0.064 0.281 l 0 0.012 l 1.912 0 l 0 0.334 l -2.334 0 c 0 -0.008 -0.002 -0.022 -0.006 -0.041 l 0 -0.1 c 0 -0.183 0.033 -0.354 0.1 -0.51 c 0.066 -0.16 0.151 -0.309 0.252 -0.449 c 0.105 -0.14 0.219 -0.272 0.344 -0.393 c 0.129 -0.121 0.252 -0.238 0.369 -0.352 c 0.098 -0.094 0.19 -0.184 0.275 -0.27 c 0.09 -0.09 0.168 -0.18 0.234 -0.273 c 0.066 -0.094 0.117 -0.194 0.156 -0.299 c 0.039 -0.105 0.059 -0.221 0.059 -0.346 c 0 -0.273 -0.073 -0.467 -0.221 -0.584 c -0.144 -0.121 -0.328 -0.182 -0.551 -0.182 c -0.125 0 -0.236 0.016 -0.334 0.047 c -0.098 0.031 -0.182 0.068 -0.256 0.111 c -0.07 0.039 -0.131 0.08 -0.182 0.123 c -0.051 0.043 -0.088 0.076 -0.111 0.1 l -0.199 -0.264 c 0.023 -0.027 0.065 -0.066 0.123 -0.117 c 0.062 -0.055 0.139 -0.108 0.229 -0.158 c 0.094 -0.051 0.199 -0.094 0.32 -0.129 c 0.121 -0.039 0.256 -0.059 0.404 -0.059 z" style="fill:#ececec;fill-opacity:1"/>
</svg>
